symbolic/status/keyboard-brightness-symbolic.svg

<svg xmlns="http://www.w3.org/2000/svg" width="16" height="16" version="1.1">
 <path style="fill:#dfdfdf" d="M 5.5,9 C 5.223,9 5,9.223 5,9.5 V 12 H 11 V 9.5 C 11,9.223 10.777,9 10.5,9 Z"/>
 <path style="fill:#dfdfdf" d="M 3,12 V 10 L 0,11 Z"/>
 <path style="fill:#dfdfdf" d="M 7,6 H 9 L 8,3 Z"/>
 <path style="fill:#dfdfdf" d="M 13,10 V 12 L 16,11 Z"/>
 <path style="fill:#dfdfdf" d="M 10.825,6.756 12.239,8.1703 13.654,5.3418 Z"/>
 <path style="fill:#dfdfdf" d="M 3.7605,8.1703 5.1748,6.756 2.3463,5.3418 Z"/>
</svg>

<svg xmlns="http://www.w3.org/2000/svg" width="16" height="16"><path d="M5.5 9c-.277 0-.5.223-.5.5V12h6V9.5c0-.277-.223-.5-.5-.5zM3 12v-2l-3 1zM7 6h2L8 3zM13 10v2l3-1zM10.825 6.756l1.414 1.414 1.415-2.828zM3.76 8.17l1.415-1.414-2.829-1.414z" fill="#f8f8f2"/></svg>
